src/static/icons/save-file-thin.svg

<svg id="Layer_1" data-name="Layer 1" xmlns="http://www.w3.org/2000/svg" viewBox="0 0 70.87 70.87"><defs/><path class="cls-1" d="M69.07 14.21L56.69 1.84A4.82 4.82 0 0053.28.37h-48a4.88 4.88 0 00-4.9 4.88v60.37a4.88 4.88 0 004.87 4.87h60.37a4.88 4.88 0 004.88-4.87v-48a4.06 4.06 0 00-1.43-3.41zM25.61 4.87H45v12.71a1.21 1.21 0 01-1.16 1.17H26.77a1.21 1.21 0 01-1.16-1.17zm27 61.13H18V40.68A1.61 1.61 0 0119.69 39h31.23a1.61 1.61 0 011.69 1.69zM66 66h-8.63V40.68a6.12 6.12 0 00-6.19-6.19H19.69a6.12 6.12 0 00-6.19 6.19V66H4.87V4.87h16.5v12.71A5.74 5.74 0 0027 23.24h17.09a5.74 5.74 0 005.67-5.66V4.87h3.94l12.55 12.56z"/><path class="cls-1" d="M44.62 45H26.25a2.25 2.25 0 000 4.5h18.37a2.25 2.25 0 100-4.5zM26.25 60h18.37a2.25 2.25 0 100-4.5H26.25a2.25 2.25 0 000 4.5z"/></svg>

<svg id="Layer_1" data-name="Layer 1" xmlns="http://www.w3.org/2000/svg" viewBox="0 0 70.87 70.87"><defs><style>.cls-1{fill:#1d1d1b;}</style></defs><title>icons-collected</title><path class="cls-1" d="M69.07,14.21l0,0L56.69,1.84A4.82,4.82,0,0,0,53.28.37h-48A4.88,4.88,0,0,0,.38,5.25V65.62a4.88,4.88,0,0,0,4.87,4.87H65.62a4.88,4.88,0,0,0,4.88-4.87v-48A4.06,4.06,0,0,0,69.07,14.21ZM25.61,4.87H45V17.58a1.21,1.21,0,0,1-1.16,1.17H26.77a1.21,1.21,0,0,1-1.16-1.17ZM52.61,66H18V40.68A1.61,1.61,0,0,1,19.69,39H50.92a1.61,1.61,0,0,1,1.69,1.69ZM66,66H57.37V40.68a6.12,6.12,0,0,0-6.19-6.19H19.69a6.12,6.12,0,0,0-6.19,6.19V66H4.87V4.87h16.5V17.58A5.74,5.74,0,0,0,27,23.24H44.09a5.74,5.74,0,0,0,5.67-5.66V4.87H53.7L66.25,17.43Z"/><path class="cls-1" d="M44.62,45H26.25a2.25,2.25,0,0,0,0,4.5H44.62a2.25,2.25,0,1,0,0-4.5Z"/><path class="cls-1" d="M26.25,60H44.62a2.25,2.25,0,1,0,0-4.5H26.25a2.25,2.25,0,0,0,0,4.5Z"/></svg>
